X:2
T:De mon malheur
R:Chanson
C:Tielman Susato
H:1544
N:version vérifiée, sans erreur apparente
A:Anvers
B:Premier livre des chansons
%O:Flandres
Z: Eric Forgeot - http://anamnese.online.fr
M:C|
L:1/4
Q:1/4=110
V:1 nm="M.S."
V:2 nm="T."
V:3 nm="B."
K:C
%%abc2pscompat
% abc 2 ps compat = corrige les basses si elles ne sont pas entrées avec les virgules
%%staves [1 | 2 | 3]
%%measurenb 0
%%measurebox 1
%%staffsep 49pt
%%sysstaffsep 30pt
V:1
%%MIDI channel 1
%%MIDI program 60       % General MIDI french horn
%%MIDI transpose 0
%%MIDI control 7 110 %volume
%%MIDI control 10 100 %pan
%%freegchord 1
"(Chantez a deux si bon vous semble, Puis chanterez tous troix ensemble.)"
z2 D2 | DD F2-|F DCD |\
EE G2 | FE2 D | E4 |A2 AA |
GG AA |_B A>G F | ED F2-|\
F ED2 | ^C4 | 
z2 D2 | DD F2-|FD CD | EE G2 |\
FE2 D | E2 z2 | A2 AA | GG AA |
_B A>G F | EG FE-|E/ D/  D2 ^C | D4 |
E2 EE | F3 E | A2 GE | F E2 D | E2 zE | EE A2 |\
z AAA | c3/2 B/4A/4G E | FG AB-|B/ A/  A2 ^G |
AA GF-|F E/ D/  ^C2-|^C2 z =C | DEFG |
AAc>B | AG2 F-|FEFA-|AGF>E | DFFG | A3A | GGFF | 
G>F E/ D/ C/ B,/  | A,CDF | ED2^C | D2z2 | F2FG | A3A | GGFF |
G>F E/ D/ C/ B,/  | A,/ B,/ C/ D/  EF | ED2 ^C | HD4 |]
V:2
%%MIDI channel 2
%%MIDI program 69       % General MIDI english horn
%%MIDI transpose -12
%%MIDI control 7 110 %volume
%%MIDI control 10 30 %pan
K:C treble-8
D>E FG-|G F/2E/2 D/2E/2F/2G/2|A _BAB|\
c2 =B G|A>G F2|E2 A>B|cdcA|
Bc>BA|GF>EF/2G/2|A _B AD|\
DEFG|E4|
D>E FG-|G F/2E/2 D/2E/2F/2G/2|A _BAB|\
cc =B G|A>G F2|E2 A>B|cd2c|
Bc>BA|GF/2E/2 F/2G/2A/2F/2|G/2A/2 _B A2|\
GFE2 |D2 z2| 
G2 GG|A F/2G/2 A/2B/2 c-|c B/2A/2B A-|AG F2|E AAA|\
c2 zd|dd f3/2e/4d/4|c A c2|de cd-|d/2c/2c/2B/4A/4 B2|\
AF GA|D/2E/2F/2G/2 A2|  
zFGA | Bcd c/ B/  |
AF/ G/  A/ B/  c-|c BA G/ F/  | G2 FF | FGAF | GA_B_B | A/ G/ F/ E/  D A | =Bcd2 |
cB c/ B/ A/ G/  | FAGF | G/ F/ F/ E/4D/4 E2 | DFFG |A3 B | cd2c | BcA_B |
Gc3/2 B/ A/ G/  | FA2F | G/ F/ F/ E/4D/4 E2 | HD4 |]
V:3
%%MIDI channel 3
%%MIDI program 70       % General MIDI bassoon
%%MIDI transpose -24
%%MIDI control 7 110 %volume
%%MIDI control 10 65 %pan
%%freegchord 1
"(Veulx tu chanter par bon advis, Attens que tu en soys requis.)"
K:C bass
z4|z2 z d|ddfd|\
c>d ee|dcd2|A4|f2 ff|
ecff|ga d2|z G df-|
fcdG|A4| 
f>g a_b-|_ba/2g/2f d |ddfd|\
cA ee|fcd2|A2f2|fd a2|
e2ff|ga d2|c G A>B|
cdA2|d4| 
c2 ce|d3 c|AA e A-|A/2B/2 cdd|A2 za|\
aa d2|z ddd|a3/2 g/4f/4e c|fefd|
f2 e2|Ad eA|_B2 A2| a2_ba | dAde |
f>e f/ g/  a-|a/ g/  efd | c2 zd | fed2 | zdde | f3f | eedd | 
e2A2 | zABd | cdA2 | d2z2 | d2dg | f3/2e/4d/4 a2 | e2fd |
e>dcf-|f e/ d/  c/ A/  d | cdA2 | Hd4 |]
W:De mon malheur me puis je bien contenter,
W:De tant avoir je ne m'en doibs lamenter,
W:A tous les maulx me puis je bien adresser,
W:A tous amis je ne me puis confesser,
W:De tout soulas me puis je bien abréger, De tous regretz, 
W:De tous regretz me puis je bien conforter [conforter]
W:A tous desduictz me puis je bien absenter,
W:Puis que d'ung point ne me puis réconforter ? (2x)
%%MIDI transpose 0

%%newpage 

